X:1
T:Old Shoes and Leggins
M:3/8
L:1/8
K:F
 z2 C| CDF| AAA| GFD| C2 z| c2- c/2B/2|A/2-F/2 FF| A c2| z2 c| dcc|\
 A/2- F3/2 F| GFF| D2 z| CD F-| F2 F| D2 C/2C/2|C/2-D/2 F2|
